src/assets/images/blogs/searchImg.svg

<svg width="24" height="24" viewBox="0 0 24 24" fill="none" xmlns="http://www.w3.org/2000/svg">
<g clip-path="url(#clip0_3030_17767)">
<path d="M9.23101 0.173829C8.04145 0.173465 6.86347 0.407482 5.76438 0.86251C4.66529 1.31754 3.66663 1.98466 2.82544 2.82576C1.98425 3.66686 1.31703 4.66546 0.861887 5.76451C0.406747 6.86355 0.172609 8.0415 0.172852 9.23106C0.172488 10.4207 0.406536 11.5987 0.861622 12.6979C1.31671 13.797 1.98391 14.7958 2.82511 15.637C3.66631 16.4782 4.66502 17.1454 5.76417 17.6004C6.86332 18.0555 8.04137 18.2896 9.23101 18.2892C11.3449 18.2892 13.2861 17.5406 14.8276 16.3277L15.6353 17.1354C15.4695 17.4576 15.4107 17.8244 15.4677 18.1823C15.5246 18.5402 15.6943 18.8706 15.9519 19.1255L20.1925 23.3948C20.8507 24.0538 21.9279 24.0538 22.587 23.3948L23.3947 22.5871C23.7109 22.2688 23.8884 21.8384 23.8884 21.3898C23.8884 20.9412 23.7109 20.5108 23.3947 20.1926L19.1255 15.952C18.8691 15.6955 18.5367 15.5289 18.1778 15.477C17.8189 15.4251 17.4529 15.4907 17.1344 15.664L16.3267 14.8563C17.3839 13.5221 18.0438 11.917 18.2306 10.2251C18.4174 8.53307 18.1236 6.82268 17.3829 5.29001C16.6422 3.75734 15.4846 2.46443 14.0428 1.55953C12.6009 0.654633 10.9333 0.174376 9.23101 0.173829ZM9.23101 1.84644C11.1895 1.84644 13.0678 2.62446 14.4527 4.00935C15.8376 5.39423 16.6156 7.27254 16.6156 9.23106C16.6156 11.1896 15.8376 13.0679 14.4527 14.4528C13.0678 15.8377 11.1895 16.6157 9.23101 16.6157C7.27248 16.6157 5.39418 15.8377 4.00929 14.4528C2.62441 13.0679 1.84639 11.1896 1.84639 9.23106C1.84639 7.27254 2.62441 5.39423 4.00929 4.00935C5.39418 2.62446 7.27248 1.84644 9.23101 1.84644ZM4.55747 6.89475C4.06531 7.69228 3.80571 8.61144 3.80793 9.5486C3.80683 10.2119 3.93667 10.8688 4.18998 11.4818C4.44329 12.0948 4.81511 12.6517 5.2841 13.1207C5.7531 13.5897 6.31006 13.9615 6.92304 14.2149C7.53602 14.4682 8.19298 14.598 8.85624 14.5969C9.89907 14.5957 10.9162 14.2734 11.7695 13.6738C11.5394 13.6954 11.3083 13.7047 11.0772 13.7015C10.2204 13.7037 9.37174 13.5366 8.5798 13.2098C7.78787 12.883 7.06832 12.4029 6.46248 11.7972C5.85665 11.1914 5.37647 10.4719 5.04955 9.68004C4.72263 8.88815 4.5554 8.03947 4.55747 7.18275C4.55747 7.08675 4.55285 6.99075 4.55747 6.89475Z" fill="#1C98CB"/>
</g>
<defs>
<clipPath id="clip0_3030_17767">
<rect width="24" height="24" fill="white"/>
</clipPath>
</defs>
</svg>

<svg xmlns="http://www.w3.org/2000/svg" width="24" height="24" fill="none"><g clip-path="url(#a)"><path fill="#1C98CB" d="M9.231.174a9.055 9.055 0 0 0-8.37 12.524 9.06 9.06 0 0 0 8.37 5.591c2.114 0 4.055-.748 5.597-1.961l.807.807a1.7 1.7 0 0 0 .317 1.99l4.24 4.27a1.697 1.697 0 0 0 2.395 0l.808-.808a1.7 1.7 0 0 0 0-2.394l-4.27-4.241a1.68 1.68 0 0 0-1.99-.288l-.808-.808A9.058 9.058 0 0 0 9.23.174m0 1.672a7.385 7.385 0 1 1 0 14.77 7.385 7.385 0 0 1 0-14.77M4.557 6.895a5.03 5.03 0 0 0-.75 2.654 5.04 5.04 0 0 0 5.05 5.048 5.08 5.08 0 0 0 2.913-.923q-.346.031-.693.027a6.503 6.503 0 0 1-6.52-6.518c0-.096-.004-.192 0-.288"/></g><defs><clipPath id="a"><path fill="#fff" d="M0 0h24v24H0z"/></clipPath></defs></svg>
